build/redact/AlignTopOutline.svg

<svg xmlns="http://www.w3.org/2000/svg" fill="none" viewBox="0 0 24 24" focusable="false"><path d="M0 0H24V24H0z"/><path fill="#74767B" fill-rule="evenodd" d="M7.31811 12.6305C7.06018 12.8801 6.64868 12.8734 6.399 12.6155C6.14932 12.3576 6.15601 11.9461 6.41394 11.6964L11.5617 6.71337C11.8137 6.46942 12.2138 6.46942 12.4659 6.71337L17.6136 11.6964C17.8715 11.9461 17.8782 12.3576 17.6285 12.6155C17.3789 12.8734 16.9674 12.8801 16.7094 12.6305L12.6625 8.71304L12.6625 19.352C12.6625 19.7109 12.3715 20.002 12.0125 20.002C11.6535 20.002 11.3625 19.7109 11.3625 19.352L11.3625 8.71547L7.31811 12.6305ZM4.67678 5.30195C4.30193 5.30195 3.99805 5.01094 3.99805 4.65195C3.99805 4.29297 4.30193 4.00195 4.67678 4.00195L19.3232 4.00195C19.6981 4.00195 20.002 4.29297 20.002 4.65195C20.002 5.01094 19.6981 5.30195 19.3232 5.30195L4.67678 5.30195Z"/></svg>

<svg xmlns="http://www.w3.org/2000/svg" fill="none" viewBox="0 0 24 24" focusable="false"><path fill="#74767B" fill-rule="evenodd" d="M7.31 12.63a.65.65 0 0 1-.92-.02.65.65 0 0 1 .02-.92l5.15-4.98c.25-.25.65-.25.9 0l5.15 4.98c.26.25.26.66.01.92s-.66.27-.92.02l-4.04-3.92v10.64c0 .36-.29.65-.65.65s-.65-.29-.65-.65V8.71zM4.67 5.3c-.37 0-.68-.29-.68-.65S4.3 4 4.67 4h14.65c.37 0 .68.29.68.65s-.31.65-.68.65z"/></svg>
